X: 1185
T: The Silver Tip
M:C|
L:1/8
R:Reel
B:O'Neill's 1185
N:Collected by Kennedy
Z:Transcribed by Trish O'Nei
K:D
DEFG ABAF|(3GFE cE dEcE|DEFG ABAF|GEcE (TED) DZ:|
d2(fd) efge|(3fga (fd) ecAG|FAAB cBcG|EFG(E TFD) Dz|
d2(fd) efge|(3fga (fd) ecAF|GBGB FAFA|EFG(E TFD) Dz|]


